_inc/images/systems/logos/satellaview.svg

<?xml version="1.0" encoding="utf-8"?>
<svg width="264" height="46" viewBox="0 0 264 46" fill="none" xmlns="http://www.w3.org/2000/svg">
  <path d="M38.3231 33.4436H56.3549V36.5191H38.3231V33.4436Z" fill="white"/>
  <path d="M40.136 31.9868H42.9524V40.3391H40.136V31.9868Z" fill="white"/>
  <path d="M51.9522 38.2349V31.9868H54.5096V37.9759C54.5096 41.9154 51.7666 45.4541 46.1574 45.4541H40.2007V42.0225H46.7725C50.2252 42.0225 51.9522 40.4277 51.9522 38.2349Z" fill="white"/>
  <path d="M68.2215 39.1209V40.2602C68.2215 41.4207 67.4646 42.0225 66.436 42.0225H58.3764V45.454H66.3673C68.7205 45.454 70.6022 43.8639 70.6022 41.6161V38.3655" fill="white"/>
  <path d="M59.5228 31.956H74.1732V35.2065H59.5228V31.956Z" fill="white"/>
  <path d="M58.3782 36.4884H75.2262V39.5559H58.3782V36.4884Z" fill="white"/>
  <path d="M91.6621 39.1209V40.2602C91.6621 41.4207 90.9052 42.0225 89.8766 42.0225H78.4749V45.454H89.8079C92.1612 45.454 94.0428 43.8639 94.0428 41.6161V36.4884" fill="white"/>
  <path d="M77.0117 36.4884H94.0428V39.5559H77.0117V36.4884Z" fill="white"/>
  <path d="M78.2021 31.956H93.0814V35.2065H78.2021V31.956Z" fill="white"/>
  <path d="M107.96 35.527H97.2125V38.5944H107.96V35.527Z" fill="white"/>
  <path d="M98.5573 31.9337V40.2602C98.5573 41.4207 99.3142 42.0225 100.343 42.0225H112.958V45.454H100.411C98.0582 45.454 96.1766 43.8639 96.1766 41.6161V31.9331" fill="white"/>
  <path d="M112.964 36.563H97.2125V38.9829H112.964V36.563Z" fill="white"/>
  <path d="M108.922 31.9883H110.547V35.5708H108.922V31.9883Z" fill="white"/>
  <path d="M111.349 31.9883H112.974V35.5708H111.349V31.9883Z" fill="white"/>
  <path d="M114.771 42.3462H129V45.4541H114.771V42.3462Z" fill="white"/>
  <path d="M116.22 35.8716H125.755V38.9794H116.22V35.8716Z" fill="white"/>
  <path d="M123.659 35.8716H125.755V43.8678H123.659V35.8716Z" fill="white"/>
  <path d="M129.68 36.8428H146.19V40.2096H129.68V36.8428Z" fill="white"/>
  <path d="M60.3748 11.8249C63.192 11.8249 65.4758 14.1087 65.4758 16.9259V22.1925C65.4758 25.0097 63.192 27.2935 60.3748 27.2935H37.6282V22.7701H57.3991C58.7565 22.7701 59.8569 21.6696 59.8569 20.3122V18.8956C59.8569 17.5382 58.7565 16.4378 57.3991 16.4378L51.0016 16.4372H42.7144C39.8973 16.4372 37.6136 14.1063 37.6136 11.2311V5.85596C37.6136 2.98072 39.8973 0.649857 42.7144 0.649857H63.285V5.26652H45.6899C44.3325 5.26652 43.2322 6.38964 43.2322 7.77505V9.22075C43.2322 10.6062 44.3325 11.8239 45.6899 11.824L51.1383 11.8244L60.3748 11.8249Z" fill="white"/>
  <path d="M68.6285 8.74682V13.2809H80.5111C81.525 13.2809 82.4463 14.0992 82.4463 15.1041L68.9384 18.6394C67.989 18.8938 67.3287 19.7543 67.3287 20.7372V22.2207C67.3287 25.038 69.6124 27.322 72.4296 27.322L83.2234 27.3217C86.0399 27.3216 88.3236 25.038 88.3236 22.2207V13.8477C88.3236 11.0305 86.0399 8.74681 83.2227 8.74681L68.6285 8.74682ZM82.5378 19.2805V21.0598C82.5378 22.1175 81.6804 22.9749 80.6228 22.9749H74.7288C73.8158 22.9749 73.1345 22.341 72.9629 21.7005L82.5378 19.2805Z" fill="white"/>
  <path d="M98.0204 13.3095H101.958V8.5599H98.0229V0.598595H92.3659V8.60513H90.0164V13.3095H92.3662V24.9781C92.3662 26.3046 93.4415 27.3799 94.768 27.3799H101.642V22.6279L98.0204 22.6252V13.3095Z" fill="white"/>
  <path d="M124.48 27.2899V22.7558H111.254C110.24 22.7558 109.318 21.9375 109.318 20.9326L122.826 17.3973C123.776 17.1429 124.436 16.2824 124.436 15.2995V13.816C124.436 10.9988 122.152 8.71469 119.335 8.71469L108.541 8.71506C105.725 8.7151 103.441 10.9988 103.441 13.816V22.189C103.441 25.0062 105.725 27.2899 108.542 27.2899L124.48 27.2899ZM109.227 16.7562V14.9769C109.227 13.9192 110.084 13.0618 111.142 13.0618H117.036C117.949 13.0618 118.63 13.6957 118.802 14.3362L109.227 16.7562Z" fill="white"/>
  <path d="M127.378 0.598579H132.854V27.3799H127.378V0.598579Z" fill="white"/>
  <path d="M135.791 0.598579H141.267V27.3799H135.791V0.598579Z" fill="white"/>
  <path d="M144.532 8.74682V13.2809H156.415C157.429 13.2809 158.35 14.0992 158.35 15.1041L144.842 18.6394C143.893 18.8938 143.233 19.7543 143.233 20.7372V22.2207C143.233 25.038 145.516 27.322 148.333 27.322L159.127 27.3217C161.944 27.3216 164.227 25.038 164.227 22.2207V13.8477C164.227 11.0305 161.944 8.74681 159.127 8.74681L144.532 8.74682ZM158.442 19.2805V21.0598C158.442 22.1175 157.584 22.9749 156.527 22.9749H150.633C149.72 22.9749 149.038 22.341 148.867 21.7005L158.442 19.2805Z" fill="white"/>
  <path d="M176.957 27.5585C174.778 27.5585 173.454 26.8038 172.479 25.1158L164.156 8.65036H170.308L177.726 22.9898L185.145 8.65036H191.297L182.974 25.1158C181.999 26.8038 180.675 27.5585 178.495 27.5585H177.726H176.957Z" fill="white"/>
  <path d="M192.787 8.65036H198.263V27.3799H192.787V8.65036Z" fill="white"/>
  <path d="M195.549 6.70528C197.248 6.70528 198.625 5.32813 198.625 3.62932C198.625 1.93052 197.248 0.55336 195.549 0.55336C193.85 0.55336 192.473 1.93052 192.473 3.62932C192.473 5.32813 193.85 6.70528 195.549 6.70528Z" fill="white"/>
  <path d="M222.006 27.2899V22.7558H208.78C207.766 22.7558 206.844 21.9375 206.844 20.9327L220.352 17.3973C221.302 17.1429 221.962 16.2824 221.962 15.2995V13.816C221.962 10.9988 219.678 8.71471 216.861 8.71471L206.067 8.71506C203.251 8.71511 200.967 10.9988 200.967 13.816V22.189C200.967 25.0062 203.251 27.2899 206.068 27.2899L222.006 27.2899ZM206.753 16.7562V14.9769C206.753 13.9192 207.61 13.0618 208.668 13.0618H214.562C215.475 13.0618 216.156 13.6958 216.328 14.3362L206.753 16.7562Z" fill="white"/>
  <path d="M234.326 27.5585C232.147 27.5585 230.822 26.8037 229.848 25.1158L221.525 8.65036H227.677L235.095 22.9898L240.207 8.65036H245.318L240.161 24.8896C239.413 26.5323 238.044 27.5585 235.864 27.5585H235.095H234.326Z" fill="white"/>
  <path d="M251.199 27.5585C253.378 27.5585 254.702 26.8037 255.677 25.1158L264 8.65036H257.848L250.43 22.9898L245.318 8.65036H240.207L245.363 24.8896C246.112 26.5323 247.481 27.5585 249.661 27.5585H250.43H251.199Z" fill="white"/>
  <path d="M0.810627 45.4643H16.7303C12.106 43.7584 5.12106 36.9731 2.53961 32.8706C5.30171 40.424 5.8359 43.7271 0.810627 45.4643Z" fill="white"/>
  <path d="M26.3539 0.497073H32.4869V13.4537C30.7347 8.22195 28.7147 3.60035 26.3539 0.497073V0.497073Z" fill="white"/>
  <path d="M20.4819 0.497073H23.9398C27.2784 5.91582 30.192 10.9868 32.4869 17.1556V21.0027C28.9319 12.9796 25.2398 5.17451 20.4819 0.497073Z" fill="white"/>
  <path d="M32.4869 27.7264V24.3389C27.697 12.7124 20.9146 4.67404 15.1821 0.479004H8.03123C20.9372 5.58394 28.4325 16.1331 32.4869 27.7264V27.7264Z" fill="white"/>
  <path d="M30.2646 41.5775C26.3558 48.0038 16.2146 46.8057 7.37326 36.2859C0.30002 27.8701 -2.11812 16.5444 2.03062 9.99319C5.8852 3.9066 17.3947 6.50896 23.7898 14.2355C30.0864 21.8434 35.3346 33.243 30.2646 41.5775ZM23.2413 29.5135C20.3766 29.5135 18.0543 31.3578 18.0543 33.6327C18.0543 35.9078 20.3766 37.752 23.2413 37.752C26.106 37.752 28.4282 35.9078 28.4282 33.6327C28.4282 31.3578 26.106 29.5135 23.2413 29.5135ZM21.4477 18.0759C20.4892 18.0746 19.6294 18.391 18.9998 19.0533C17.7713 20.3454 17.8674 22.948 19.2278 25.2801C19.4873 25.2425 19.7492 25.2227 20.0116 25.2213C22.6214 25.2227 24.843 26.9967 25.2524 29.4061C26.3231 29.4743 27.2737 29.1894 27.907 28.5413C29.4557 26.9564 28.9133 23.2209 26.4535 20.6009C24.9162 18.9634 23.0449 18.0783 21.4477 18.0759ZM9.92897 15.4389C8.88137 15.4325 7.94117 15.801 7.27875 16.5838C6.01859 18.0726 6.3267 20.6025 7.66515 22.8337C8.1471 22.7282 8.64492 22.6748 9.14501 22.6746C12.1281 22.6762 14.5755 24.542 14.6847 26.898C15.4067 26.7496 16.0453 26.3952 16.5314 25.8208C18.1621 23.8941 17.1344 20.2606 14.6784 17.75C13.2202 16.2592 11.4599 15.4484 9.92897 15.4389ZM12.0519 27.1725C9.18721 27.1725 6.86497 29.0167 6.86497 31.2918C6.86497 33.5667 9.18721 35.411 12.0519 35.411C14.9166 35.411 17.2388 33.5667 17.2388 31.2918C17.2388 29.0167 14.9166 27.1725 12.0519 27.1725Z" fill="white"/>
</svg>

<svg width="264" height="46" fill="none" xmlns="http://www.w3.org/2000/svg">
    <path d="M38.323 33.444h18.032v3.075H38.323v-3.075Z" fill="#fff"/>
    <path d="M40.136 31.987h2.816v8.352h-2.816v-8.352Z" fill="#fff"/>
    <path d="M51.952 38.235v-6.248h2.558v5.989c0 3.94-2.743 7.478-8.353 7.478h-5.956v-3.431h6.572c3.452 0 5.18-1.595 5.18-3.788Zm16.27.885v1.14c0 1.16-.757 1.763-1.786 1.763h-8.06v3.431h7.991c2.353 0 4.235-1.59 4.235-3.838v-3.25m-11.079-6.41h14.65v3.25h-14.65v-3.25Z" fill="#fff"/>
    <path d="M58.378 36.488h16.848v3.068H58.378v-3.068Zm33.284 2.632v1.14c0 1.16-.757 1.763-1.785 1.763H78.475v3.431h11.333c2.353 0 4.235-1.59 4.235-3.838v-5.128" fill="#fff"/>
    <path d="M77.012 36.488h17.03v3.068h-17.03v-3.068Zm1.19-4.532h14.88v3.25h-14.88v-3.25Zm29.758 3.571H97.213v3.067h10.747v-3.067Z" fill="#fff"/>
    <path d="M98.557 31.934v8.326c0 1.16.757 1.763 1.786 1.763h12.615v3.431h-12.547c-2.353 0-4.234-1.59-4.234-3.838v-9.683" fill="#fff"/>
    <path d="M112.964 36.563H97.213v2.42h15.751v-2.42Zm-4.042-4.575h1.625v3.583h-1.625v-3.583Zm2.427 0h1.625v3.583h-1.625v-3.583Zm3.422 10.358H129v3.108h-14.229v-3.108Zm1.449-6.474h9.535v3.107h-9.535v-3.107Z" fill="#fff"/>
    <path d="M123.659 35.872h2.096v7.996h-2.096v-7.996Zm6.021.971h16.51v3.367h-16.51v-3.367ZM60.375 11.825a5.101 5.101 0 0 1 5.1 5.1v5.267a5.101 5.101 0 0 1-5.1 5.102H37.628V22.77H57.4c1.358 0 2.458-1.1 2.458-2.458v-1.416c0-1.358-1.1-2.458-2.458-2.458H42.714c-2.817 0-5.1-2.332-5.1-5.207V5.856c0-2.875 2.283-5.206 5.1-5.206h20.571v4.617H45.69c-1.357 0-2.458 1.123-2.458 2.508v1.446c0 1.385 1.1 2.603 2.458 2.603h14.685Zm8.254-3.078v4.534H80.51c1.014 0 1.935.818 1.935 1.823L68.938 18.64a2.172 2.172 0 0 0-1.61 2.098v1.484a5.101 5.101 0 0 0 5.102 5.101h10.793a5.1 5.1 0 0 0 5.1-5.101v-8.373a5.1 5.1 0 0 0-5.1-5.101H68.629ZM82.538 19.28v1.779a1.915 1.915 0 0 1-1.915 1.915h-5.894c-.913 0-1.594-.634-1.766-1.274l9.575-2.42Zm15.482-5.97h3.938V8.56h-3.935V.599h-5.657v8.006h-2.35v4.704h2.35v11.67a2.402 2.402 0 0 0 2.402 2.4h6.874v-4.751l-3.622-.003V13.31Zm26.46 13.98v-4.534h-13.226c-1.014 0-1.936-.819-1.936-1.823l13.508-3.536a2.172 2.172 0 0 0 1.61-2.097v-1.484a5.101 5.101 0 0 0-5.101-5.101h-10.794a5.1 5.1 0 0 0-5.1 5.101v8.373a5.1 5.1 0 0 0 5.101 5.1h15.938Zm-15.253-10.534v-1.78c0-1.057.857-1.914 1.915-1.914h5.894c.913 0 1.594.634 1.766 1.274l-9.575 2.42ZM127.378.599h5.476v26.78h-5.476V.6Zm8.413 0h5.476v26.78h-5.476V.6Zm8.741 8.148v4.534h11.883c1.014 0 1.935.818 1.935 1.823l-13.508 3.535a2.172 2.172 0 0 0-1.609 2.098v1.484a5.1 5.1 0 0 0 5.1 5.101h10.794a5.1 5.1 0 0 0 5.1-5.101v-8.373a5.1 5.1 0 0 0-5.1-5.101h-14.595Zm13.91 10.534v1.779a1.915 1.915 0 0 1-1.915 1.915h-5.894c-.913 0-1.595-.634-1.766-1.274l9.575-2.42Zm18.515 8.277c-2.179 0-3.503-.754-4.478-2.442L164.156 8.65h6.152l7.418 14.34 7.419-14.34h6.152l-8.323 16.466c-.975 1.688-2.299 2.442-4.479 2.442h-1.538Zm15.83-18.908h5.476v18.73h-5.476V8.65Zm2.762-1.945a3.076 3.076 0 1 0 0-6.151 3.076 3.076 0 0 0 0 6.151Zm26.457 20.585v-4.534H208.78c-1.014 0-1.936-.819-1.936-1.823l13.508-3.536a2.172 2.172 0 0 0 1.61-2.097v-1.484a5.101 5.101 0 0 0-5.101-5.101h-10.794a5.1 5.1 0 0 0-5.1 5.101v8.373a5.1 5.1 0 0 0 5.101 5.1h15.938Zm-15.253-10.534v-1.78c0-1.057.857-1.914 1.915-1.914h5.894c.913 0 1.594.634 1.766 1.274l-9.575 2.42Zm27.573 10.802c-2.179 0-3.504-.754-4.478-2.442L221.525 8.65h6.152l7.418 14.34 5.112-14.34h5.111l-5.157 16.24c-.748 1.642-2.117 2.668-4.297 2.668h-1.538Z" fill="#fff"/>
    <path d="M251.199 27.558c2.179 0 3.503-.754 4.478-2.442L264 8.65h-6.152l-7.418 14.34-5.112-14.34h-5.111l5.156 16.24c.749 1.642 2.118 2.668 4.298 2.668h1.538ZM.81 45.464h15.92c-4.624-1.706-11.609-8.49-14.19-12.593C5.302 40.424 5.836 43.727.81 45.464ZM26.354.497h6.133v12.957C30.735 8.222 28.715 3.6 26.354.497Zm-5.872 0h3.458c3.338 5.419 6.252 10.49 8.547 16.659v3.847C28.932 12.98 25.24 5.175 20.482.497Zm12.005 27.229V24.34C27.697 12.712 20.915 4.674 15.182.479h-7.15c12.905 5.105 20.4 15.654 24.455 27.247Z" fill="#fff"/>
    <path d="M30.265 41.578c-3.91 6.426-14.05 5.228-22.892-5.292C.3 27.87-2.118 16.544 2.031 9.993 5.885 3.907 17.395 6.51 23.79 14.235c6.296 7.608 11.545 19.008 6.475 27.343ZM23.24 29.513c-2.864 0-5.187 1.845-5.187 4.12 0 2.275 2.323 4.119 5.187 4.119 2.865 0 5.187-1.844 5.187-4.12 0-2.274-2.322-4.118-5.187-4.118Zm-1.793-11.437c-.959-.001-1.819.315-2.448.977-1.229 1.292-1.133 3.895.228 6.227a5.71 5.71 0 0 1 .784-.059c2.61.002 4.831 1.776 5.24 4.185 1.071.068 2.022-.217 2.655-.865 1.549-1.585 1.006-5.32-1.454-7.94-1.537-1.638-3.408-2.523-5.005-2.525ZM9.929 15.439c-1.048-.007-1.988.362-2.65 1.145-1.26 1.489-.952 4.018.386 6.25.482-.106.98-.16 1.48-.16 2.983.002 5.43 1.868 5.54 4.224a3.22 3.22 0 0 0 1.846-1.077c1.631-1.927.603-5.56-1.853-8.071-1.458-1.49-3.218-2.302-4.749-2.311Zm2.123 11.733c-2.865 0-5.187 1.845-5.187 4.12 0 2.275 2.322 4.119 5.187 4.119s5.187-1.844 5.187-4.12c0-2.274-2.322-4.119-5.187-4.119Z" fill="#fff"/>
</svg>
